X:3
T: Als ich noch jung war und klein, S. 66
N: S0066
O: Luxemburg
S: Die Bauernhochzeit in frheren Zeiten]
R: Brautlied, Brutigam, Jugend]
M: 3/4
L: 1/16
K: F
A2G2 | F4A2F2c2d2 | c4z4
B2A2 | G4c2B2A2GA | F4
A2G2 | F4A2F2c2d2 | c4z4
B2A2 | G4c2B2A2GA | F4z4
B4A4G4z4 | c4=B4c4z4
d4e2f2c4_B2A2 | G4c3cc2z6
B4A2B2G4z4 | c4=B2d2c4z2
c2 | f4e2d2c4A2B2 | c2B2A2G2F4

